X: 29323
T: New Years Alone
R: reel
M: 4/4
K: Dmajor
|:dAFA BAFA|dAFD EDB,D|A,3B, DEFG|ABdB BAFA|
dAFA BAFA|dAFD EDB,D|A,3B, DEFG|ABAF E2D2:|
|:B2BB dBGB|A2AA BAFA|D2FA BAFA|DEFA BAFA|
B2BB dBGB|A2AA BAFB|Accc ABcA|dfec d4:|

